X:1599
T:"The Ulster Hornpipe"           1599
C:after Sg't. J. O'Neill
B:O'Neill's Music Of Ireland (The 1850) Lyon & Healy, Chicago, 1903 edition
Z:FROM O'NEILL'S TO NOTEWORTHY, FROM NOTEWORTHY TO ABC, MIDI AND .TXT BY VINCE
BRENNAN July 2003 (HTTP://WWW.SOSYOURMOM.COM)
I:abc2nwc
M:C|
L:1/8
K:G
(dc)|BGFG DGBd|cBAG FAGF|Ggfe dBAG|B2A2A2(dc)|
BGFG DGBd|cBAG FAGF|Ggfe dcAc|B2G2G2:|
(dc)|BGBd gabg|abc'a gfed|egfa gbac'|
bgfg e^def|gbdg egBd|cBAG FAGF|Ggfe dcAc|
B2G2G2(dc)|BGBd gabg|abc'a gfed| (3(efg)  (3(fga)  (3(gab)  (3(abc')|
bgfg e^def|gbdg egBd|
cBAG FAGF|Ggfe dcAc|]


